resources/icons/folder_gradle.svg

<?xml version="1.0" encoding="UTF-8" standalone="no"?>
<svg
   xmlns:dc="http://purl.org/dc/elements/1.1/"
   xmlns:cc="http://creativecommons.org/ns#"
   xmlns:rdf="http://www.w3.org/1999/02/22-rdf-syntax-ns#"
   xmlns:svg="http://www.w3.org/2000/svg"
   xmlns="http://www.w3.org/2000/svg"
   xmlns:sodipodi="http://sodipodi.sourceforge.net/DTD/sodipodi-0.dtd"
   xmlns:inkscape="http://www.inkscape.org/namespaces/inkscape"
   width="16"
   height="16"
   viewBox="0 0 16 16"
   version="1.1"
   id="svg4"
   sodipodi:docname="folder_gradle.svg"
   inkscape:version="0.92.4 (5da689c313, 2019-01-14)">
  <metadata
     id="metadata10">
    <rdf:RDF>
      <cc:Work
         rdf:about="">
        <dc:format>image/svg+xml</dc:format>
        <dc:type
           rdf:resource="http://purl.org/dc/dcmitype/StillImage" />
      </cc:Work>
    </rdf:RDF>
  </metadata>
  <defs
     id="defs8" />
  <sodipodi:namedview
     pagecolor="#ffffff"
     bordercolor="#666666"
     borderopacity="1"
     objecttolerance="10"
     gridtolerance="10"
     guidetolerance="10"
     inkscape:pageopacity="0"
     inkscape:pageshadow="2"
     inkscape:window-width="1920"
     inkscape:window-height="1001"
     id="namedview6"
     showgrid="false"
     inkscape:zoom="14.75"
     inkscape:cx="8"
     inkscape:cy="8"
     inkscape:window-x="-9"
     inkscape:window-y="-9"
     inkscape:window-maximized="1"
     inkscape:current-layer="svg4" />
  <path
     fill="#AFB1B3"
     d="M15.411782,3.26915988 C14.8856586,2.30291422 13.9453191,2.01413641 13.2809887,2.00044611 C12.4659087,1.98365356 11.7964871,2.44470668 11.9230952,2.74737711 C11.9502713,2.81235548 12.1030777,3.15154464 12.196879,3.29154994 C12.3326583,3.49413951 12.5757257,3.33848814 12.6608617,3.29225806 C12.9150895,3.15424223 13.1867828,3.10956328 13.4949582,3.1462506 C13.7895455,3.18131937 14.1809013,3.36677919 14.4434573,3.88205401 C15.0613253,5.09475891 13.153976,7.59064349 10.7664935,5.86225912 C8.37897727,4.13387474 6.05724334,4.70657467 5.00607535,5.05493565 C3.95494106,5.4032292 3.47177332,5.75351221 3.88713574,6.56356698 C4.45159568,7.66438904 4.26449884,7.32661614 4.81183043,8.23786454 C5.68119521,9.68515927 7.58416127,7.57182773 7.58416127,7.57182773 C6.16655453,9.70626797 4.95135228,9.19055476 4.48524548,8.44439933 C4.06519636,7.77188831 3.73881369,6.99656509 3.73881369,6.99656509 C0.148334564,8.28999559 1.11976134,14 1.11976134,14 L2.90282898,14 C3.35743823,11.89756 4.98281046,11.9750823 5.2613821,14 L6.62193929,14 C7.82520568,9.89459397 10.8749281,14 10.8749281,14 L12.6484874,14 C12.1517654,11.1994893 13.6461462,10.3196342 14.5879018,8.67807869 C15.5297586,7.03638836 16.4219162,5.02806084 15.411782,3.26915988 L15.411782,3.26915988 Z"
     id="path2" />
  <path
     style="fill:#aeb9c0;fill-opacity:1;stroke-width:0.06779661"
     d="M 1.0879988,13.583051 C 1.064485,13.387288 1.0451611,12.830508 1.0450568,12.345763 1.044507,9.7906556 1.8219482,8.0057911 3.2700649,7.2375458 3.505259,7.1127722 3.707291,7.0212468 3.719025,7.0341559 3.7307591,7.0470651 3.8958117,7.3686007 4.0858086,7.7486795 4.5001835,8.5776144 4.7471209,8.8750895 5.1479147,9.0281539 5.8278236,9.2878136 6.6809685,8.861341 7.349079,7.9278296 L 7.5837054,7.6 7.2910704,7.8372881 C 6.5368257,8.4488804 6.036536,8.7169262 5.6473141,8.7179818 5.1556985,8.7193153 4.846227,8.3624481 4.1336378,6.9724864 3.7066967,6.1397042 3.682151,5.9599367 3.9532271,5.6511981 4.3538709,5.19489 5.6541271,4.7935426 6.9129302,4.7376327 c 1.3942257,-0.061925 2.4169308,0.2297918 3.7091208,1.05799 0.853154,0.5468089 1.396351,0.7293308 1.969916,0.6619196 0.977166,-0.1148467 1.781951,-0.8508604 1.956469,-1.789282 0.07277,-0.3912942 0.06714,-0.4318016 -0.110354,-0.7945916 -0.335451,-0.6856385 -0.898148,-0.9069003 -1.64693,-0.6475999 -0.232325,0.080453 -0.453947,0.1267861 -0.492494,0.1029625 -0.106059,-0.065548 -0.339336,-0.5525528 -0.339336,-0.7084193 0,-0.1934999 0.433833,-0.4609828 0.89928,-0.554458 0.748946,-0.1504097 1.604399,0.139418 2.15605,0.7304695 0.712722,0.7636278 0.96133,1.8685994 0.702427,3.1220278 -0.191863,0.9288711 -0.796957,2.250659 -1.488253,3.2509928 -1.031204,1.4921959 -1.262404,1.8641069 -1.421365,2.2864279 -0.23251,0.617723 -0.321675,1.309949 -0.252225,1.958144 l 0.05622,0.524767 -0.851494,-2.71e-4 -0.851492,-2.71e-4 -0.683373,-0.668746 C 9.3540746,12.417311 8.8470536,12.147072 8.1965505,12.188493 7.5398361,12.23031 7.1403222,12.600606 6.7712423,13.509565 l -0.1605807,0.39552 -0.6816019,0.01932 c -0.6258249,0.01774 -0.6816021,0.009 -0.6816021,-0.106566 0,-0.28819 -0.2387615,-0.794747 -0.5061136,-1.073771 -0.2592155,-0.270532 -0.3131434,-0.29661 -0.6133725,-0.29661 -0.3040386,0 -0.3529232,0.02464 -0.640292,0.322783 -0.265461,0.275411 -0.4252559,0.572654 -0.5827465,1.083996 -0.019116,0.06207 -0.2600276,0.08475 -0.9001414,0.08475 H 1.1307513 Z"
     id="path23"
     inkscape:connector-curvature="0" />
</svg>

<svg xmlns="http://www.w3.org/2000/svg" width="16" height="16" viewBox="0 0 16 16"><path fill="#AFB1B3" d="M15.412 3.27c-.526-.967-1.467-1.256-2.131-1.27-.815-.016-1.485.445-1.358.747.027.065.18.405.274.545.136.202.379.046.464 0 .254-.138.526-.182.834-.146.295.035.686.22.948.736.618 1.213-1.289 3.709-3.677 1.98-2.387-1.728-4.709-1.155-5.76-.807-1.051.348-1.534.699-1.119 1.509.565 1.1.377.763.925 1.674.87 1.447 2.772-.666 2.772-.666-1.417 2.134-2.633 1.619-3.099.872-.42-.672-.746-1.447-.746-1.447C.149 8.29 1.119 14 1.119 14h1.784c.454-2.102 2.08-2.025 2.358 0h1.36c1.204-4.105 4.254 0 4.254 0h1.773c-.496-2.8.998-3.68 1.94-5.322s1.834-3.65.824-5.409z"/><path d="M1.088 13.583a14.83 14.83 0 01-.043-1.237c0-2.555.777-4.34 2.225-5.108.235-.125.437-.217.449-.204.012.013.177.335.367.715.414.829.661 1.126 1.062 1.28.68.259 1.533-.168 2.201-1.101l.235-.328-.293.237c-.754.612-1.254.88-1.644.881-.491.001-.8-.356-1.513-1.746-.427-.832-.452-1.012-.18-1.32.4-.457 1.7-.858 2.959-.914 1.394-.062 2.417.23 3.71 1.058.852.546 1.395.729 1.969.662.977-.115 1.782-.851 1.956-1.79.073-.391.068-.432-.11-.794-.335-.686-.898-.907-1.647-.648-.232.08-.454.127-.492.103-.106-.066-.34-.553-.34-.708 0-.194.434-.461.9-.555.749-.15 1.604.14 2.156.73.712.764.961 1.87.702 3.123-.192.929-.797 2.25-1.488 3.25-1.031 1.493-1.263 1.865-1.422 2.287a4.34 4.34 0 00-.252 1.958l.056.525h-1.703l-.683-.67c-.87-.852-1.378-1.122-2.028-1.08-.657.041-1.057.412-1.426 1.32l-.16.396-.682.02c-.626.017-.682.008-.682-.107 0-.288-.238-.795-.506-1.074-.259-.27-.313-.297-.613-.297-.304 0-.353.025-.64.323-.266.276-.426.573-.583 1.084-.02.062-.26.085-.9.085H1.13z" fill="#aeb9c0" stroke-width=".068"/></svg>
